!!!!SEGMENT: pl-kk--kk-i-389--009-005_anonim--missa-no-9-sanctus.krn
!!!cenid: 17xx:2518
!!!COM: Anonim
!!!COM-rismID: pe30004985
!!!CDT:
!!!CNT:
!!!OPR: [Missa] No. 9.
!!!OTL: Sanctus
!!!OMV: 005
!!!PDT:
!!!AGN: Sacred; Mass
!!!YEC: Copyright 2022 Narodowy Instytut Fryderyka Chopina (https://polishscores.org)
!!!YEM: License CC-BY-4.0 (https://creativecommons.org/licenses/by/4.0)
!!!SMS-siglum: PL-Kk
!!!SMS-shelfmark: Kk.I.389
!!!SMS-variant:
!!!SMS-altvar:
!!!SMS-shelfwork: 009-005 M
!!!NIFC-rismSourceID: 1001146182
!!!NIFC-rismChildID: 1001147253
!!!NIFC-islandoraID: pl-kk:6976
!!!URL-pdf-islandora: https://repozytorium.nifc.pl/islandora/object/pl-kk%3A6976/datastream/PDF/view
!!!URL-scan: https://polish.musicsources.pl/pl/lokalizacje/galeria/rekopisy/5999/1 @EN{Scan on Polish Music Sources Website} @PL{Skany w portalu Dziedzictwo Muzyki Polskiej w otwartym dostępie}
!!!IIIF:
!!!ONB-nifc: UWAGA: S – skan 15-16, A – 34-35, T – 53-54, B – 72-73. Części Mszy: Rorate, Kyrie, Gloria, Graduale, Sanctus, Benedictus, Agnus, Dona.
!!!AIN: 1 alto 1 bass 1 soprn 1 tenor
!!!key: C
**kern	**text	**kern	**text	**kern	**text	**kern	**text
*part4	*part4	*part3	*part3	*part2	*part2	*part1	*part1
*staff4	*staff4	*staff3	*staff3	*staff2	*staff2	*staff1	*staff1
*I"Basso.	*	*I"Tenore.	*	*I"Alto.	*	*I"Soprano.	*
*I'B	*	*I'T	*	*I'A	*	*I'S	*
*ICvox	*	*ICvox	*	*ICvox	*	*ICvox	*
*Ibass	*	*Itenor	*	*Ialto	*	*Isoprn	*
*clefF4	*	*clefC4	*	*clefC3	*	*clefC1	*
*k[]	*	*k[b-]	*	*k[b-]	*	*k[b-]	*
*C:	*	*C:	*	*C:	*	*C:	*
*M2/2	*	*M2/2	*	*M2/2	*	*M2/2	*
*met(C.)	*	*met(C.)	*	*met(C.)	*	*met(C.)	*
=1	=1	=1	=1	=1	=1	=1	=1
*	*	*	*	*2\right	*	*all\right:global	*
8c\L	San-	8c\L	San-	2e\	San-	1g	San-
8G\	.	8B-\	.	.	.	.	.
8E\	.	8c\	.	.	.	.	.
8G\J	.	8B-\J	.	.	.	.	.
8C/L	.	4c\	-ctus,	8e\L	.	.	.
8E/	.	.	.	8g\	.	.	.
8D/	.	8B-\L	san-	8f\	.	.	.
8C/J	.	8c\J	.	8e\J	.	.	.
=2	=2	=2	=2	=2	=2	=2	=2
4G\	-ctus	4d\	-ctus,	8g\L	.	4b-\	-ctus,
.	.	.	.	8f\	.	.	.
*	*	*	*	*	*	*2\right	*
4r	.	8B-\L	san-	8d\	.	2g\	San-
.	.	8c\J	.	8e\J	.	.	.
2r	.	8d\L	.	8f\L	.	.	.
.	.	8c\	.	8e\	.	.	.
.	.	8d\	.	8f\	.	4g\	-ctus
.	.	8B-\J	.	8d\J	.	.	.
=3	=3	=3	=3	=3	=3	=3	=3
8c\L	San-	4c\	-ctus,	4e\	-ctus	1g	San-
8G\	.	.	.	.	.	.	.
8E\	.	8e\L	san-	8g\L	San-	.	.
8G\J	.	8c\J	.	8e\J	.	.	.
*	*	*2\right	*	*	*	*	*
8E\L	.	2c\	.	8e\L	.	.	.
8C\	.	.	.	8g\	.	.	.
8E\	.	.	.	8g\	.	.	.
8G\J	.	.	.	8e\J	.	.	.
=4	=4	=4	=4	=4	=4	=4	=4
4B-X\	-ctus	4c\	-ctus	4g\	-ctus	4cc\	-ctus
4r	.	8c\L	san-	8e\L	San-	2cc\	San-
.	.	8d\J	.	8f\J	.	.	.
!	!	!	!	!LO:LB:g=original	!	!	!
2r	.	8e\L	.	8g\L	.	.	.
.	.	8g\	.	8b-X\	.	.	.
.	.	8f\	-ctus	8a\	.	4cc\	-ctus
.	.	8e\J	.	8g\J	-ctus	.	.
!LO:LB:g=original	!	!	!	!	!	!	!
=5	=5	=5	=5	=5	=5	=5	=5
4.A\	Do-	4.c\	Do-	4.f\	Do-	4.cc\	Do-
8A\	-mi-	8c\	-mi-	8f\	-mi-	8cc\	-mi-
*2\right	*	*	*	*	*	*	*
2A\	-nus	2c\	-nus	2f\	-nus	2cc\	-nus
!	!	!	!	!LO:LB:g=original	!	!	!
=6	=6	=6	=6	=6	=6	=6	=6
2B\	De-	2d\	De-	2f\	De-	2g\	De-
2c\	-us	2G/	-us	2e\	-us	2g\	-us
=7	=7	=7	=7	=7	=7	=7	=7
2c\	sa-	2G/	sa-	2e\	sa-	2.cc\	sa-
4A\	.	4c\	.	4f#X\	.	.	.
4F#X\	-ba-	4c\	-ba-	4a\	ba-	4a\	-ba-
=8	=8	=8	=8	=8	=8	=8	=8
!	!	!	!	!	!	!LO:N:vis=2.	!
2G\	-ot,	2B-\	-ot,	2g\	-ot,	1dd	-ot,
2r;	.	2r	.	2r	.	.	.
!	!	!	!	!	!	!LO:LB:g=original	!
=9||	=9||	=9||	=9||	=9||	=9||	=9||	=9||
!LO:TX:a:t=1.	!	!	!	!	!	!	!
1r	.	2c\	Ple-	2e\	Ple-	2g\	Ple-
.	.	4c\	-ni	4e\	-ni	4g\	-ni
.	.	4c\	sunt	4e\	sunt	4g\	sunt
=10	=10	=10	=10	=10	=10	=10	=10
2r	.	2c\	ce-	2f\	ce-	2a\	ce-
4r	.	4c\	-li	4e\	-li	4g\	-li
4c\	et	4c\	et	4e\	et	4g\	et
!	!	!LO:LB:g=original	!	!	!	!	!
=11	=11	=11	=11	=11	=11	=11	=11
4B\	ter-	4d\	ter-	1f	ter-	1g	ter-
4G\	.	4B-\	.	.	.	.	.
4A\	.	4c\	.	.	.	.	.
4B\	.	4d\	.	.	.	.	.
=12	=12	=12	=12	=12	=12	=12	=12
2c\	-ra	2c\	-ra	2e\	-ra	2g\	-ra,
!LO:LB:g=original	!	!	!	!	!	!	!
4c\	glo-	4e\	glo-	4g\	glo-	4g\	glo-
8B\	-ri-	8d\	-ri-	8f\	-ri-	8g\	-ri-
8c\	-a	8c\	-a	8e\	-a	8g\	-a
=13	=13	=13	=13	=13	=13	=13	=13
4G\	tu-	4c\	tu-	4e\	tu-	4g\	tu-
4G\	-a	4B-\	-a,	4d\	-a	4g\	-a
2r	.	2r	.	2r	.	2r	.
=14	=14	=14	=14	=14	=14	=14	=14
4F\	glo-	2.c\	glo-	1f	glo-	4a\	glo-
4G\	.	.	.	.	.	4g\	.
4A\	.	.	.	.	.	4f\	-ri-
4B\	.	4d\	.	.	.	4g\	-a
=15	=15	=15	=15	=15	=15	=15	=15
4c\	.	4e\	.	2e\	.	2g\	glo-
4G\	.	4c\	.	.	.	.	.
4E\	-ri-	4c\	-ri-	4g\	-ri-	4g\	-ri-
4C/	-a	4c\	-a	4e\	-a	4g\	-a
=16	=16	=16	=16	=16	=16	=16	=16
4F\	tu-	2d\	tu-	2f\	tu-	2a\	tu-
4D\	.	.	.	.	.	.	.
4G\	.	2B-\	.	2d\	.	2g\	.
4GG/	.	.	.	.	.	.	.
=17	=17	=17	=17	=17	=17	=17	=17
2C/	-a.	1c	-a,	1e	-a	2g\	-a
2r	.	.	.	.	.	2r	.
!LO:LB:g=original	!	!LO:LB:g=original	!	!LO:LB:g=original	!	!LO:LB:g=original	!
=18||	=18||	=18||	=18||	=18||	=18||	=18||	=18||
*M3/4	*	*M3/4	*	*M3/4	*	*M3/4	*
!	!	!	!	!	!	!LO:TX:t=Osan;	!
4C/	O-	4e\	O-	4g\	O-	4cc\	O-
4BB-/	.	4d\	.	4f\	.	2g\	-san-
8C/L	.	4c\	.	4e\	.	.	.
8E/J	.	.	.	.	.	.	.
=19	=19	=19	=19	=19	=19	=19	=19
4G\	-san-	4c\	-san-	4e\	-san-	2g\	-na
4GG/	.	4B-\	.	4d\	.	.	.
4C/	-na	4c\	-na	4e\	-na	4g\	in
=20	=20	=20	=20	=20	=20	=20	=20
8F\	in	8A\	in	8d\	in	8cc\	.
8F\	ex-	8A\	ex-	8d\	ex-	8cc\	ex-
4G\	-cel-	4c\	cel-	4e\	-cel-	2g\	-cel-
4GG/	.	4B-\	.	4d\	.	.	.
=21	=21	=21	=21	=21	=21	=21	=21
4C/	-sis,	4c\	-sis	4e\	-sis	4g\	-sis
4r	.	4r	.	4r	.	4r	.
4c\	o-	4e\	o-	4g\	o-	4g\	o-
=22	=22	=22	=22	=22	=22	=22	=22
4.B\	-san-	4.d\	-san-	4.g\	-san-	4.g\	-san-
8A\	.	8c\	-na	8f#X\	.	8a\	-na
4G\	-na	4B-\	in	4g\	-na	4b-\	in
=23	=23	=23	=23	=23	=23	=23	=23
8C/	in	4c\	ex-	4a\	o-	4ee\	ex-
8C/	ex-	.	.	.	.	.	.
!LO:LB:g=original	!	!	!	!	!	!	!
2D\	-cel-	4B-\	-cel-	4g\	-san-	2dd\	-cel-
.	.	4A\	.	4fn\	.	.	.
!	!	!LO:PB:g=original	!	!	!	!	!
=24	=24	=24	=24	=24	=24	=24	=24
4GG/	-sis	4B-\	-sis,	4g\	-na	4dd\	-sis
4r	.	4r	.	4r	.	4r	.
4G\	o-	4B-\	o-	4d\	o-	4dd\	o-
=25	=25	=25	=25	=25	=25	=25	=25
4G\	-san-	4B-\	-san-	4d\	-san-	4dd\	-san-
4B\	.	4d\	.	2g\	-na	4ff\	.
4c\	-na	4e\	-na	.	.	4ee\	-na
=26	=26	=26	=26	=26	=26	=26	=26
!	!	!	!	!LO:N:vis=1	!	!	!
4G\	O-	4e\	o-	2.g\	in	4cc\	in
4F\	-san-	4d\	-san-	.	.	4b-\	.
4E\	-na	4c\	-na	.	.	4cc\	ex-
!	!	!	!	!	!	!LO:LB:g=original	!
=27	=27	=27	=27	=27	=27	=27	=27
4G\	in	4B-\	in	4d\	.	4dd\	-cel-
4B\	.	4d\	.	2g\	ex-	4ff\	.
4c\	ex-	4e\	ex-	.	.	4ee\	.
=28	=28	=28	=28	=28	=28	=28	=28
4G\	-cel-	4e\	-cel-	2.g\	-cel-	4cc\	.
4F\	.	4d\	-sis	.	.	4b-\	.
4E\	-sis	4c\	in	.	.	4cc\	-sis
=29	=29	=29	=29	=29	=29	=29	=29
8F\	in	4d\	ex-	8a\L	.	8a\	in
8F\	ex-	.	.	8f\J	.	8a\	ex-
4G\	-cel-	4c\	-cel-	4e\	.	2g\	-cel-
4GG/	.	4B-\	.	4d\	.	.	.
=30	=30	=30	=30	=30	=30	=30	=30
2.C/	-sis.	2c\	-sis.	2.e\	-sis.	2g\	-sis,
.	.	4r	.	.	.	4r	.
==	==	==	==	==	==	==	==
*-	*-	*-	*-	*-	*-	*-	*-
!!!system-decoration: [(s1,s2,s3,s4)]
!!!ENC: Filip Voros
!!!END: 2023-11-12
!!!ENC: Leszek Kubiak
!!!END: 2024-01-20
